X:1
T:We're no awa tae bide awa
T:Johnnie Scobbie
T:Carnwath Mill
C:Traditional
S:Phil Taylor <aar09@dial.pipex.com> 20051030
M:4/4
Q:170
K:HP
|:{a}A>B | {GdG}c3 e {a}dc {gBd}BA | {gcd}c2 {e}A2 {GAG}A2 {gcd}ce |\
{ag}a4 {gdg}ag {fg}fe | {gfg}f4 {g}e2 {g}f>g |
{ag}a2 {GdG}a2 {g}a3 c | {Gdc}d2 f2 {gef}e3 {A}e |\
  {g}f2 {g}f2 {ag}a2 c2 | {gBd}B4 {G}A2 :|
